public/design_9/images/logo-white.svg

<svg width="186" height="43" viewBox="0 0 186 43" fill="none" xmlns="http://www.w3.org/2000/svg">
<path d="M14.5809 24.8777C15.5027 25.6665 16.7 26.1429 18.0087 26.1429C19.3173 26.1429 20.5146 25.6665 21.4365 24.8777C20.3373 24.6122 19.1894 24.4714 18.0087 24.4714C16.8279 24.4714 15.68 24.6122 14.5809 24.8777Z" fill="white"/>
<path d="M18.0087 20.2286C16.1743 20.2286 14.404 20.5027 12.7365 21.0122C12.7771 22.5587 13.484 23.9393 14.5809 24.8777C15.68 24.6122 16.8279 24.4714 18.0087 24.4714C19.1894 24.4714 20.3373 24.6122 21.4365 24.8777C22.5333 23.9393 23.2402 22.5587 23.2808 21.0122C21.6133 20.5027 19.843 20.2286 18.0087 20.2286Z" fill="white"/>
<path d="M23.2826 20.8714C23.2826 17.9601 20.9214 15.6 18.0087 15.6C15.0959 15.6 12.7347 17.9601 12.7347 20.8714C12.7347 20.9185 12.7353 20.9654 12.7365 21.0122C14.404 20.5027 16.1743 20.2286 18.0087 20.2286C19.843 20.2286 21.6133 20.5027 23.2808 21.0122C23.282 20.9654 23.2826 20.9185 23.2826 20.8714Z" fill="white"/>
<path d="M18.0087 3C8.06275 3 0 11.0589 0 21C0 24.1206 0.794482 27.0557 2.1923 29.6143C3.73804 26.785 6.02155 24.416 8.78438 22.7659C8.67544 22.194 8.61843 21.6036 8.61843 21C8.61843 15.8164 12.8226 11.6143 18.0087 11.6143C23.1947 11.6143 27.3989 15.8164 27.3989 21C27.3989 21.6036 27.3419 22.194 27.2329 22.7659C29.9958 24.416 32.2793 26.785 33.825 29.6143C35.2228 27.0557 36.0173 24.1206 36.0173 21C36.0173 11.0589 27.9546 3 18.0087 3Z" fill="white"/>
<path fill-rule="evenodd" clip-rule="evenodd" d="M7.97922 35.9524C7.97922 31.9521 9.43418 29.1527 11.0893 27.3451C12.8057 29.2141 15.2703 30.3857 18.0087 30.3857C20.7261 30.3857 23.1739 29.232 24.8885 27.3879C26.5599 29.2194 28.0381 32.0229 28.0381 35.9524C25.1717 37.877 21.7214 39 18.0087 39C14.296 39 10.8457 37.877 7.97922 35.9524Z" fill="white"/>
<path fill-rule="evenodd" clip-rule="evenodd" d="M18.0087 26.1429C16.7 26.1429 15.5027 25.6665 14.5809 24.8777C13.6456 25.2146 12.3127 26.0089 11.0893 27.3451C12.8057 29.2141 15.2703 30.3857 18.0087 30.3857C20.7261 30.3857 23.1739 29.232 24.8885 27.3879C23.6759 26.0592 22.3617 25.242 21.4365 24.8777C20.5146 25.6665 19.3173 26.1429 18.0087 26.1429Z" fill="white"/>
<path d="M8.78438 22.7659C6.02155 24.416 3.73804 26.785 2.1923 29.6143C2.61335 30.385 3.08914 31.1215 3.61445 31.8187C3.61445 27.7896 7.06107 24.1047 8.78438 22.7659Z" fill="white"/>
<path d="M33.825 29.6143C32.2793 26.785 29.9958 24.416 27.2329 22.7659C28.9563 24.2291 32.4029 28.0881 32.4029 31.8187C32.9282 31.1215 33.404 30.385 33.825 29.6143Z" fill="white"/>
<path d="M44.561 13.016C44.561 11.8373 44.816 10.789 45.326 9.871C45.836 8.94167 46.5443 8.222 47.451 7.712C48.369 7.19067 49.406 6.93 50.562 6.93C51.9787 6.93 53.1913 7.304 54.2 8.052C55.2087 8.8 55.883 9.82 56.223 11.112H53.027C52.789 10.6133 52.449 10.2337 52.007 9.973C51.5763 9.71233 51.0833 9.582 50.528 9.582C49.6327 9.582 48.9073 9.89367 48.352 10.517C47.7967 11.1403 47.519 11.9733 47.519 13.016C47.519 14.0587 47.7967 14.8917 48.352 15.515C48.9073 16.1383 49.6327 16.45 50.528 16.45C51.0833 16.45 51.5763 16.3197 52.007 16.059C52.449 15.7983 52.789 15.4187 53.027 14.92H56.223C55.883 16.212 55.2087 17.232 54.2 17.98C53.1913 18.7167 51.9787 19.085 50.562 19.085C49.406 19.085 48.369 18.83 47.451 18.32C46.5443 17.7987 45.836 17.079 45.326 16.161C44.816 15.243 44.561 14.1947 44.561 13.016ZM60.8592 7.066V14.206C60.8592 14.92 61.0349 15.4697 61.3862 15.855C61.7376 16.2403 62.2532 16.433 62.9332 16.433C63.6132 16.433 64.1346 16.2403 64.4972 15.855C64.8599 15.4697 65.0412 14.92 65.0412 14.206V7.066H67.9482V14.189C67.9482 15.2543 67.7216 16.1553 67.2682 16.892C66.8149 17.6287 66.2029 18.184 65.4322 18.558C64.6729 18.932 63.8229 19.119 62.8822 19.119C61.9416 19.119 61.0972 18.9377 60.3492 18.575C59.6126 18.201 59.0289 17.6457 58.5982 16.909C58.1676 16.161 57.9522 15.2543 57.9522 14.189V7.066H60.8592ZM74.3075 19.119C73.4349 19.119 72.6529 18.9773 71.9615 18.694C71.2702 18.4107 70.7149 17.9913 70.2955 17.436C69.8875 16.8807 69.6722 16.212 69.6495 15.43H72.7435C72.7889 15.872 72.9419 16.212 73.2025 16.45C73.4632 16.6767 73.8032 16.79 74.2225 16.79C74.6532 16.79 74.9932 16.6937 75.2425 16.501C75.4919 16.297 75.6165 16.0193 75.6165 15.668C75.6165 15.3733 75.5145 15.1297 75.3105 14.937C75.1179 14.7443 74.8742 14.5857 74.5795 14.461C74.2962 14.3363 73.8882 14.1947 73.3555 14.036C72.5849 13.798 71.9559 13.56 71.4685 13.322C70.9812 13.084 70.5619 12.7327 70.2105 12.268C69.8592 11.8033 69.6835 11.197 69.6835 10.449C69.6835 9.33833 70.0859 8.47133 70.8905 7.848C71.6952 7.21333 72.7435 6.896 74.0355 6.896C75.3502 6.896 76.4099 7.21333 77.2145 7.848C78.0192 8.47133 78.4499 9.344 78.5065 10.466H75.3615C75.3389 10.0807 75.1972 9.78033 74.9365 9.565C74.6759 9.33833 74.3415 9.225 73.9335 9.225C73.5822 9.225 73.2989 9.32133 73.0835 9.514C72.8682 9.69533 72.7605 9.96167 72.7605 10.313C72.7605 10.6983 72.9419 10.9987 73.3045 11.214C73.6672 11.4293 74.2339 11.6617 75.0045 11.911C75.7752 12.1717 76.3985 12.421 76.8745 12.659C77.3619 12.897 77.7812 13.2427 78.1325 13.696C78.4839 14.1493 78.6595 14.733 78.6595 15.447C78.6595 16.127 78.4839 16.7447 78.1325 17.3C77.7925 17.8553 77.2939 18.2973 76.6365 18.626C75.9792 18.9547 75.2029 19.119 74.3075 19.119ZM89.0335 7.066V9.395H85.8715V19H82.9645V9.395H79.8025V7.066H89.0335ZM96.1365 19.119C95.0145 19.119 93.9831 18.8583 93.0425 18.337C92.1131 17.8157 91.3708 17.0903 90.8155 16.161C90.2715 15.2203 89.9995 14.1663 89.9995 12.999C89.9995 11.8317 90.2715 10.7833 90.8155 9.854C91.3708 8.92467 92.1131 8.19933 93.0425 7.678C93.9831 7.15667 95.0145 6.896 96.1365 6.896C97.2585 6.896 98.2841 7.15667 99.2135 7.678C100.154 8.19933 100.891 8.92467 101.423 9.854C101.967 10.7833 102.239 11.8317 102.239 12.999C102.239 14.1663 101.967 15.2203 101.423 16.161C100.879 17.0903 100.143 17.8157 99.2135 18.337C98.2841 18.8583 97.2585 19.119 96.1365 19.119ZM96.1365 16.467C97.0885 16.467 97.8478 16.1497 98.4145 15.515C98.9925 14.8803 99.2815 14.0417 99.2815 12.999C99.2815 11.945 98.9925 11.1063 98.4145 10.483C97.8478 9.84833 97.0885 9.531 96.1365 9.531C95.1731 9.531 94.4025 9.84267 93.8245 10.466C93.2578 11.0893 92.9745 11.9337 92.9745 12.999C92.9745 14.053 93.2578 14.8973 93.8245 15.532C94.4025 16.1553 95.1731 16.467 96.1365 16.467ZM117.372 7.066V19H114.465V11.843L111.796 19H109.45L106.764 11.826V19H103.857V7.066H107.291L110.64 15.328L113.955 7.066H117.372ZM122.369 9.395V11.809H126.262V14.053H122.369V16.671H126.772V19H119.462V7.066H126.772V9.395H122.369ZM134.745 19L132.263 14.495H131.566V19H128.659V7.066H133.538C134.479 7.066 135.278 7.23033 135.935 7.559C136.604 7.88767 137.103 8.341 137.431 8.919C137.76 9.48567 137.924 10.1203 137.924 10.823C137.924 11.6163 137.698 12.3247 137.244 12.948C136.802 13.5713 136.145 14.0133 135.272 14.274L138.026 19H134.745ZM131.566 12.438H133.368C133.901 12.438 134.298 12.3077 134.558 12.047C134.83 11.7863 134.966 11.418 134.966 10.942C134.966 10.4887 134.83 10.1317 134.558 9.871C134.298 9.61033 133.901 9.48 133.368 9.48H131.566V12.438Z" fill="white"/>
<path d="M49.372 36.119C48.4993 36.119 47.7173 35.9773 47.026 35.694C46.3347 35.4107 45.7793 34.9913 45.36 34.436C44.952 33.8807 44.7367 33.212 44.714 32.43H47.808C47.8533 32.872 48.0063 33.212 48.267 33.45C48.5277 33.6767 48.8677 33.79 49.287 33.79C49.7177 33.79 50.0577 33.6937 50.307 33.501C50.5563 33.297 50.681 33.0193 50.681 32.668C50.681 32.3733 50.579 32.1297 50.375 31.937C50.1823 31.7443 49.9387 31.5857 49.644 31.461C49.3607 31.3363 48.9527 31.1947 48.42 31.036C47.6493 30.798 47.0203 30.56 46.533 30.322C46.0457 30.084 45.6263 29.7327 45.275 29.268C44.9237 28.8033 44.748 28.197 44.748 27.449C44.748 26.3383 45.1503 25.4713 45.955 24.848C46.7597 24.2133 47.808 23.896 49.1 23.896C50.4147 23.896 51.4743 24.2133 52.279 24.848C53.0837 25.4713 53.5143 26.344 53.571 27.466H50.426C50.4033 27.0807 50.2617 26.7803 50.001 26.565C49.7403 26.3383 49.406 26.225 48.998 26.225C48.6467 26.225 48.3633 26.3213 48.148 26.514C47.9327 26.6953 47.825 26.9617 47.825 27.313C47.825 27.6983 48.0063 27.9987 48.369 28.214C48.7317 28.4293 49.2983 28.6617 50.069 28.911C50.8397 29.1717 51.463 29.421 51.939 29.659C52.4263 29.897 52.8457 30.2427 53.197 30.696C53.5483 31.1493 53.724 31.733 53.724 32.447C53.724 33.127 53.5483 33.7447 53.197 34.3C52.857 34.8553 52.3583 35.2973 51.701 35.626C51.0437 35.9547 50.2673 36.119 49.372 36.119ZM58.42 26.395V28.809H62.313V31.053H58.42V33.671H62.823V36H55.513V24.066H62.823V26.395H58.42ZM70.7963 36L68.3143 31.495H67.6173V36H64.7103V24.066H69.5893C70.5299 24.066 71.3289 24.2303 71.9863 24.559C72.6549 24.8877 73.1536 25.341 73.4823 25.919C73.8109 26.4857 73.9753 27.1203 73.9753 27.823C73.9753 28.6163 73.7486 29.3247 73.2953 29.948C72.8533 30.5713 72.1959 31.0133 71.3233 31.274L74.0773 36H70.7963ZM67.6173 29.438H69.4193C69.9519 29.438 70.3486 29.3077 70.6093 29.047C70.8813 28.7863 71.0173 28.418 71.0173 27.942C71.0173 27.4887 70.8813 27.1317 70.6093 26.871C70.3486 26.6103 69.9519 26.48 69.4193 26.48H67.6173V29.438ZM87.0031 24.066L82.7701 36H79.1321L74.8991 24.066H77.9931L80.9511 33.076L83.9261 24.066H87.0031ZM91.1251 24.066V36H88.2181V24.066H91.1251ZM92.7387 30.016C92.7387 28.8373 92.9937 27.789 93.5037 26.871C94.0137 25.9417 94.7221 25.222 95.6287 24.712C96.5467 24.1907 97.5837 23.93 98.7397 23.93C100.156 23.93 101.369 24.304 102.378 25.052C103.386 25.8 104.061 26.82 104.401 28.112H101.205C100.967 27.6133 100.627 27.2337 100.185 26.973C99.7541 26.7123 99.2611 26.582 98.7057 26.582C97.8104 26.582 97.0851 26.8937 96.5297 27.517C95.9744 28.1403 95.6967 28.9733 95.6967 30.016C95.6967 31.0587 95.9744 31.8917 96.5297 32.515C97.0851 33.1383 97.8104 33.45 98.7057 33.45C99.2611 33.45 99.7541 33.3197 100.185 33.059C100.627 32.7983 100.967 32.4187 101.205 31.92H104.401C104.061 33.212 103.386 34.232 102.378 34.98C101.369 35.7167 100.156 36.085 98.7397 36.085C97.5837 36.085 96.5467 35.83 95.6287 35.32C94.7221 34.7987 94.0137 34.079 93.5037 33.161C92.9937 32.243 92.7387 31.1947 92.7387 30.016ZM109.088 26.395V28.809H112.981V31.053H109.088V33.671H113.491V36H106.181V24.066H113.491V26.395H109.088ZM123.299 36.119C122.426 36.119 121.644 35.9773 120.953 35.694C120.261 35.4107 119.706 34.9913 119.287 34.436C118.879 33.8807 118.663 33.212 118.641 32.43H121.735C121.78 32.872 121.933 33.212 122.194 33.45C122.454 33.6767 122.794 33.79 123.214 33.79C123.644 33.79 123.984 33.6937 124.234 33.501C124.483 33.297 124.608 33.0193 124.608 32.668C124.608 32.3733 124.506 32.1297 124.302 31.937C124.109 31.7443 123.865 31.5857 123.571 31.461C123.287 31.3363 122.879 31.1947 122.347 31.036C121.576 30.798 120.947 30.56 120.46 30.322C119.972 30.084 119.553 29.7327 119.202 29.268C118.85 28.8033 118.675 28.197 118.675 27.449C118.675 26.3383 119.077 25.4713 119.882 24.848C120.686 24.2133 121.735 23.896 123.027 23.896C124.341 23.896 125.401 24.2133 126.206 24.848C127.01 25.4713 127.441 26.344 127.498 27.466H124.353C124.33 27.0807 124.188 26.7803 123.928 26.565C123.667 26.3383 123.333 26.225 122.925 26.225C122.573 26.225 122.29 26.3213 122.075 26.514C121.859 26.6953 121.752 26.9617 121.752 27.313C121.752 27.6983 121.933 27.9987 122.296 28.214C122.658 28.4293 123.225 28.6617 123.996 28.911C124.766 29.1717 125.39 29.421 125.866 29.659C126.353 29.897 126.772 30.2427 127.124 30.696C127.475 31.1493 127.651 31.733 127.651 32.447C127.651 33.127 127.475 33.7447 127.124 34.3C126.784 34.8553 126.285 35.2973 125.628 35.626C124.97 35.9547 124.194 36.119 123.299 36.119ZM139.674 24.066L135.543 32.056V36H132.636V32.056L128.505 24.066H131.803L134.115 29.064L136.41 24.066H139.674ZM145.163 36.119C144.29 36.119 143.508 35.9773 142.817 35.694C142.126 35.4107 141.57 34.9913 141.151 34.436C140.743 33.8807 140.528 33.212 140.505 32.43H143.599C143.644 32.872 143.797 33.212 144.058 33.45C144.319 33.6767 144.659 33.79 145.078 33.79C145.509 33.79 145.849 33.6937 146.098 33.501C146.347 33.297 146.472 33.0193 146.472 32.668C146.472 32.3733 146.37 32.1297 146.166 31.937C145.973 31.7443 145.73 31.5857 145.435 31.461C145.152 31.3363 144.744 31.1947 144.211 31.036C143.44 30.798 142.811 30.56 142.324 30.322C141.837 30.084 141.417 29.7327 141.066 29.268C140.715 28.8033 140.539 28.197 140.539 27.449C140.539 26.3383 140.941 25.4713 141.746 24.848C142.551 24.2133 143.599 23.896 144.891 23.896C146.206 23.896 147.265 24.2133 148.07 24.848C148.875 25.4713 149.305 26.344 149.362 27.466H146.217C146.194 27.0807 146.053 26.7803 145.792 26.565C145.531 26.3383 145.197 26.225 144.789 26.225C144.438 26.225 144.154 26.3213 143.939 26.514C143.724 26.6953 143.616 26.9617 143.616 27.313C143.616 27.6983 143.797 27.9987 144.16 28.214C144.523 28.4293 145.089 28.6617 145.86 28.911C146.631 29.1717 147.254 29.421 147.73 29.659C148.217 29.897 148.637 30.2427 148.988 30.696C149.339 31.1493 149.515 31.733 149.515 32.447C149.515 33.127 149.339 33.7447 148.988 34.3C148.648 34.8553 148.149 35.2973 147.492 35.626C146.835 35.9547 146.058 36.119 145.163 36.119ZM159.889 24.066V26.395H156.727V36H153.82V26.395H150.658V24.066H159.889ZM164.255 26.395V28.809H168.148V31.053H164.255V33.671H168.658V36H161.348V24.066H168.658V26.395H164.255ZM184.06 24.066V36H181.153V28.843L178.484 36H176.138L173.452 28.826V36H170.545V24.066H173.979L177.328 32.328L180.643 24.066H184.06Z" fill="white"/>
</svg>

<svg xmlns="http://www.w3.org/2000/svg" width="186" height="43" fill="none"><path fill="#fff" d="M14.58 24.878a5.25 5.25 0 0 0 3.429 1.265 5.26 5.26 0 0 0 3.427-1.265 14.6 14.6 0 0 0-3.427-.407c-1.181 0-2.329.141-3.428.407"/><path fill="#fff" d="M18.009 20.229c-1.835 0-3.605.274-5.273.783a5.26 5.26 0 0 0 1.845 3.866c1.099-.266 2.247-.407 3.428-.407 1.18 0 2.328.141 3.427.407a5.26 5.26 0 0 0 1.845-3.866 18 18 0 0 0-5.272-.783"/><path fill="#fff" d="M23.283 20.871a5.273 5.273 0 0 0-5.274-5.271 5.273 5.273 0 0 0-5.273 5.412 18 18 0 0 1 5.273-.783c1.834 0 3.604.274 5.272.783z"/><path fill="#fff" d="M18.009 3C8.063 3 0 11.059 0 21c0 3.12.794 6.056 2.192 8.614a18.1 18.1 0 0 1 6.592-6.848A9.4 9.4 0 0 1 8.618 21c0-5.184 4.205-9.386 9.39-9.386 5.187 0 9.39 4.202 9.39 9.386q0 .907-.165 1.766a18.1 18.1 0 0 1 6.592 6.848A17.9 17.9 0 0 0 36.017 21c0-9.941-8.062-18-18.008-18"/><path fill="#fff" fill-rule="evenodd" d="M7.98 35.952c0-4 1.454-6.8 3.11-8.607a9.37 9.37 0 0 0 6.919 3.04 9.37 9.37 0 0 0 6.88-2.997c1.67 1.831 3.15 4.635 3.15 8.564A17.93 17.93 0 0 1 18.008 39a17.93 17.93 0 0 1-10.03-3.048" clip-rule="evenodd"/><path fill="#fff" fill-rule="evenodd" d="M18.009 26.143a5.25 5.25 0 0 1-3.428-1.265c-.935.337-2.268 1.13-3.492 2.467a9.37 9.37 0 0 0 6.92 3.04 9.37 9.37 0 0 0 6.88-2.997c-1.213-1.329-2.527-2.146-3.453-2.51a5.26 5.26 0 0 1-3.427 1.265" clip-rule="evenodd"/><path fill="#fff" d="M8.784 22.766a18.1 18.1 0 0 0-6.592 6.848q.633 1.158 1.422 2.205c0-4.03 3.447-7.714 5.17-9.053M33.825 29.614a18.1 18.1 0 0 0-6.592-6.848c1.723 1.463 5.17 5.322 5.17 9.053a18 18 0 0 0 1.422-2.205M44.561 13.016q0-1.768.765-3.145a5.4 5.4 0 0 1 2.125-2.159q1.377-.782 3.111-.782 2.126 0 3.638 1.122t2.023 3.06h-3.196a2.57 2.57 0 0 0-1.02-1.139 2.8 2.8 0 0 0-1.479-.391q-1.342 0-2.176.935-.833.934-.833 2.499t.833 2.499q.832.935 2.176.935a2.8 2.8 0 0 0 1.479-.391q.663-.39 1.02-1.139h3.196q-.51 1.938-2.023 3.06-1.513 1.105-3.638 1.105-1.734 0-3.111-.765a5.56 5.56 0 0 1-2.125-2.159q-.765-1.377-.765-3.145m16.298-5.95v7.14q0 1.071.527 1.649t1.547.578 1.564-.578.544-1.649v-7.14h2.907v7.123q0 1.598-.68 2.703a4.34 4.34 0 0 1-1.836 1.666q-1.14.561-2.55.561t-2.533-.544a4.2 4.2 0 0 1-1.75-1.666q-.647-1.122-.647-2.72V7.066zm13.449 12.053q-1.31 0-2.347-.425a3.9 3.9 0 0 1-1.665-1.258q-.613-.833-.647-2.006h3.094q.069.663.46 1.02.39.34 1.02.34.645 0 1.02-.289.374-.306.374-.833a.96.96 0 0 0-.306-.731 2.3 2.3 0 0 0-.732-.476 11 11 0 0 0-1.223-.425q-1.156-.357-1.887-.714a3.5 3.5 0 0 1-1.258-1.054q-.528-.697-.528-1.819 0-1.666 1.207-2.601 1.207-.952 3.145-.952 1.972 0 3.18.952 1.207.935 1.291 2.618h-3.144q-.035-.578-.425-.901-.392-.34-1.004-.34-.525 0-.85.289-.323.272-.323.799 0 .578.544.901.545.323 1.7.697 1.156.39 1.87.748.732.357 1.258 1.037.528.68.527 1.751 0 1.02-.527 1.853-.51.832-1.496 1.326-.986.493-2.328.493M89.033 7.066v2.329h-3.162V19h-2.906V9.395h-3.163V7.066zm7.103 12.053a6.3 6.3 0 0 1-3.093-.782 5.94 5.94 0 0 1-2.228-2.176Q90 14.751 90 12.999q0-1.751.817-3.145a5.94 5.94 0 0 1 2.227-2.176 6.3 6.3 0 0 1 3.093-.782q1.684 0 3.078.782a5.66 5.66 0 0 1 2.209 2.176q.816 1.395.816 3.145t-.816 3.162a5.8 5.8 0 0 1-2.21 2.176q-1.393.782-3.076.782m0-2.652q1.429 0 2.279-.952.867-.952.866-2.516 0-1.581-.867-2.516-.85-.952-2.278-.952-1.444 0-2.311.935-.85.935-.85 2.533 0 1.58.85 2.533.867.935 2.311.935m21.236-9.401V19h-2.907v-7.157L111.796 19h-2.346l-2.686-7.174V19h-2.907V7.066h3.434l3.349 8.262 3.315-8.262zm4.997 2.329v2.414h3.893v2.244h-3.893v2.618h4.403V19h-7.31V7.066h7.31v2.329zM134.745 19l-2.482-4.505h-.697V19h-2.907V7.066h4.879q1.411 0 2.397.493 1.004.493 1.496 1.36.493.85.493 1.904 0 1.19-.68 2.125-.663.934-1.972 1.326L138.026 19zm-3.179-6.562h1.802q.8 0 1.19-.391.408-.39.408-1.105 0-.68-.408-1.071-.39-.39-1.19-.391h-1.802zM49.372 36.119q-1.31 0-2.346-.425t-1.666-1.258q-.612-.833-.646-2.006h3.094q.068.663.459 1.02.39.34 1.02.34.645 0 1.02-.289.374-.306.374-.833a.96.96 0 0 0-.306-.731 2.3 2.3 0 0 0-.731-.476 11 11 0 0 0-1.224-.425q-1.156-.357-1.887-.714a3.5 3.5 0 0 1-1.258-1.054q-.527-.697-.527-1.819 0-1.666 1.207-2.601 1.207-.952 3.145-.952 1.972 0 3.179.952 1.207.935 1.292 2.618h-3.145q-.034-.578-.425-.901-.39-.34-1.003-.34-.527 0-.85.289-.323.272-.323.799 0 .578.544.901.545.323 1.7.697 1.156.39 1.87.748.731.357 1.258 1.037t.527 1.751q0 1.02-.527 1.853-.51.832-1.496 1.326-.986.493-2.329.493m9.048-9.724v2.414h3.893v2.244H58.42v2.618h4.403V36h-7.31V24.066h7.31v2.329zM70.796 36l-2.482-4.505h-.697V36H64.71V24.066h4.88q1.41 0 2.396.493 1.004.493 1.496 1.36.493.85.493 1.904 0 1.19-.68 2.125-.663.934-1.972 1.326L74.077 36zm-3.179-6.562h1.802q.8 0 1.19-.391.408-.39.408-1.105 0-.68-.408-1.071-.39-.39-1.19-.391h-1.802zm19.386-5.372L82.77 36h-3.638L74.9 24.066h3.094l2.958 9.01 2.975-9.01zm4.122 0V36h-2.907V24.066zm1.614 5.95q0-1.768.765-3.145a5.4 5.4 0 0 1 2.125-2.159q1.377-.782 3.11-.782 2.126 0 3.639 1.122t2.023 3.06h-3.196a2.57 2.57 0 0 0-1.02-1.139 2.8 2.8 0 0 0-1.48-.391q-1.342 0-2.175.935-.834.935-.833 2.499 0 1.565.833 2.499.832.935 2.176.935a2.8 2.8 0 0 0 1.479-.391q.663-.39 1.02-1.139h3.196q-.51 1.938-2.023 3.06-1.514 1.105-3.638 1.105-1.734 0-3.111-.765a5.56 5.56 0 0 1-2.125-2.159q-.765-1.377-.765-3.145m16.349-3.621v2.414h3.893v2.244h-3.893v2.618h4.403V36h-7.31V24.066h7.31v2.329zm14.211 9.724q-1.31 0-2.346-.425-1.038-.425-1.666-1.258-.613-.833-.646-2.006h3.094q.067.663.459 1.02.39.34 1.02.34.645 0 1.02-.289.374-.306.374-.833a.96.96 0 0 0-.306-.731 2.3 2.3 0 0 0-.731-.476 11 11 0 0 0-1.224-.425q-1.157-.357-1.887-.714a3.5 3.5 0 0 1-1.258-1.054q-.528-.697-.527-1.819 0-1.666 1.207-2.601 1.206-.952 3.145-.952 1.971 0 3.179.952 1.206.935 1.292 2.618h-3.145q-.035-.578-.425-.901-.391-.34-1.003-.34-.528 0-.85.289-.323.272-.323.799 0 .578.544.901.543.323 1.7.697 1.156.39 1.87.748.73.357 1.258 1.037.527.68.527 1.751 0 1.02-.527 1.853-.51.832-1.496 1.326-.987.493-2.329.493m16.375-12.053-4.131 7.99V36h-2.907v-3.944l-4.131-7.99h3.298l2.312 4.998 2.295-4.998zm5.489 12.053q-1.31 0-2.346-.425t-1.666-1.258q-.612-.833-.646-2.006h3.094q.067.663.459 1.02.392.34 1.02.34.647 0 1.02-.289.374-.306.374-.833a.96.96 0 0 0-.306-.731 2.3 2.3 0 0 0-.731-.476 11 11 0 0 0-1.224-.425q-1.156-.357-1.887-.714a3.5 3.5 0 0 1-1.258-1.054q-.527-.697-.527-1.819 0-1.666 1.207-2.601 1.207-.952 3.145-.952 1.972 0 3.179.952 1.207.935 1.292 2.618h-3.145q-.034-.578-.425-.901-.391-.34-1.003-.34-.527 0-.85.289-.323.272-.323.799 0 .578.544.901t1.7.697q1.156.39 1.87.748.731.357 1.258 1.037t.527 1.751q0 1.02-.527 1.853-.51.832-1.496 1.326-.986.493-2.329.493m14.726-12.053v2.329h-3.162V36h-2.907v-9.605h-3.162v-2.329zm4.366 2.329v2.414h3.893v2.244h-3.893v2.618h4.403V36h-7.31V24.066h7.31v2.329zm19.805-2.329V36h-2.907v-7.157L178.484 36h-2.346l-2.686-7.174V36h-2.907V24.066h3.434l3.349 8.262 3.315-8.262z"/></svg>
